X:87
T:Patty's Journey Home
M:3/4
L:1/8
C:© Paul Gitlitz 1985
R:Waltz
B:Giblitz Fancy, Canadian Fiddle Tunes Vol 1
N:Her death wish was a tune.
D:Rodney Miller album "Airdance"
K:DDorian
F>E|"Dm"D2A,2D>F|A<d- d>d (3ABc|"C"(3ded c>B A<G|1{G}"Am"A3A,:|2{G}"A"A3A (3AB^c|!
|:"Dm"d2 A2d>c|"G"B<G- G2({eg}e2)|"F"d>c A>G F<C|"C"E4 {G}F>E|!
"Dm"D>A, D>F A<d|"C"(3eae d>c A<G|"Dm"(3FED "C"C>D E<C|1"Dm"D4 "A"(3AB^c:|2"Dm"D6|]
